X: 264
T: Emily's Reel
M: 2/2
L: 1/8
R: Reel
C: Otis Thomas
D: "Gaelic Roots" (played by Seamus Egan)
Z: Rob Greenway
K: D
AF~F2 ABdf|eB~B2 GA (3Bcd|AF~F2 ABdf|efdB ABdB|!
AF~F2 ABdf|eB~B2 g2fg|gfeg fdAF|~G3F GFE2:|!
|:~f3d edgf|eB~B2 g2fg|gfeg fdfa|b2af gfeg|!
~f3d edgf|eB~B2 g2fg|gfeg fdAF|~G3F GFE2:|!
|:ad~d2 adbd|gd (3Bcd g2fg|ad~d2 adga|aggf gfeg|!
ad~d2 adbd|gd (3Bcd g2fg|gfeg fdAF|~G3F GFE2:|!

